public/icons/google.svg

<?xml version="1.0" encoding="utf-8"?>
<svg viewBox="0 0 24 24" width="24" height="24" xmlns="http://www.w3.org/2000/svg">
  <g transform="matrix(1, 0, 0, 1, 27.009001, -39.238998)">
    <path fill="#4285F4" d="M -3.264 51.509 C -3.264 50.719 -3.334 49.969 -3.454 49.239 L -14.754 49.239 L -14.754 53.749 L -8.284 53.749 C -8.574 55.229 -9.424 56.479 -10.684 57.329 L -10.684 60.329 L -6.824 60.329 C -4.564 58.239 -3.264 55.159 -3.264 51.509 Z"/>
    <path fill="#34A853" d="M -14.754 63.239 C -11.514 63.239 -8.804 62.159 -6.824 60.329 L -10.684 57.329 C -11.764 58.049 -13.134 58.489 -14.754 58.489 C -17.884 58.489 -20.534 56.379 -21.484 53.529 L -25.464 53.529 L -25.464 56.619 C -23.494 60.539 -19.444 63.239 -14.754 63.239 Z"/>
    <path fill="#FBBC05" d="M -21.484 53.529 C -21.734 52.809 -21.864 52.039 -21.864 51.239 C -21.864 50.439 -21.724 49.669 -21.484 48.949 L -21.484 45.859 L -25.464 45.859 C -26.284 47.479 -26.754 49.299 -26.754 51.239 C -26.754 53.179 -26.284 54.999 -25.464 56.619 L -21.484 53.529 Z"/>
    <path fill="#EA4335" d="M -14.754 43.989 C -12.984 43.989 -11.404 44.599 -10.154 45.789 L -6.734 42.369 C -8.804 40.429 -11.514 39.239 -14.754 39.239 C -19.444 39.239 -23.494 41.939 -25.464 45.859 L -21.484 48.949 C -20.534 46.099 -17.884 43.989 -14.754 43.989 Z"/>
  </g>
</svg>

<?xml version="1.0" encoding="UTF-8" standalone="no"?>
<svg
   viewBox="0 0 512 512"
   width="512"
   height="512"
   version="1.1"
   id="svg4"
   sodipodi:docname="google.svg"
   inkscape:version="1.3 (0e150ed6c4, 2023-07-21)"
   xmlns:inkscape="http://www.inkscape.org/namespaces/inkscape"
   xmlns:sodipodi="http://sodipodi.sourceforge.net/DTD/sodipodi-0.dtd"
   xmlns="http://www.w3.org/2000/svg"
   xmlns:svg="http://www.w3.org/2000/svg">
  <defs
     id="defs4" />
  <sodipodi:namedview
     id="namedview4"
     pagecolor="#ffffff"
     bordercolor="#666666"
     borderopacity="1.0"
     inkscape:showpageshadow="2"
     inkscape:pageopacity="0.0"
     inkscape:pagecheckerboard="0"
     inkscape:deskcolor="#d1d1d1"
     inkscape:zoom="0.43457604"
     inkscape:cx="552.26238"
     inkscape:cy="410.74514"
     inkscape:window-width="1571"
     inkscape:window-height="813"
     inkscape:window-x="207"
     inkscape:window-y="119"
     inkscape:window-maximized="0"
     inkscape:current-layer="svg4" />
  <g
     transform="matrix(18.737594,0,0,18.737594,542.98027,-705.33023)"
     id="g4">
    <path
       fill="#4285f4"
       d="m -3.264,51.509 c 0,-0.79 -0.07,-1.54 -0.19,-2.27 h -11.3 v 4.51 h 6.47 c -0.29,1.48 -1.14,2.73 -2.4,3.58 v 3 h 3.86 c 2.26,-2.09 3.56,-5.17 3.56,-8.82 z"
       id="path1" />
    <path
       fill="#34a853"
       d="m -14.754,63.239 c 3.24,0 5.95,-1.08 7.93,-2.91 l -3.86,-3 c -1.08,0.72 -2.45,1.16 -4.07,1.16 -3.13,0 -5.78,-2.11 -6.73,-4.96 h -3.98 v 3.09 c 1.97,3.92 6.02,6.62 10.71,6.62 z"
       id="path2" />
    <path
       fill="#fbbc05"
       d="m -21.484,53.529 c -0.25,-0.72 -0.38,-1.49 -0.38,-2.29 0,-0.8 0.14,-1.57 0.38,-2.29 v -3.09 h -3.98 c -0.82,1.62 -1.29,3.44 -1.29,5.38 0,1.94 0.47,3.76 1.29,5.38 z"
       id="path3" />
    <path
       fill="#ea4335"
       d="m -14.754,43.989 c 1.77,0 3.35,0.61 4.6,1.8 l 3.42,-3.42 c -2.07,-1.94 -4.78,-3.13 -8.02,-3.13 -4.69,0 -8.74,2.7 -10.71,6.62 l 3.98,3.09 c 0.95,-2.85 3.6,-4.96 6.73,-4.96 z"
       id="path4" />
  </g>
</svg>
